usr/share/icons/biglinux-icons-material/scalable/apps/popcorntime.svg

<svg width="64" height="64" viewBox="0 0 16.933 16.933" xmlns="http://www.w3.org/2000/svg"><defs><radialGradient id="a" cx="51.783" cy="-71.55" r="26.61" gradientTransform="matrix(.301 .00369 -.00301 .24602 -5.545 21.865)" gradientUnits="userSpaceOnUse"><stop stop-color="#f9eee5" offset="0"/><stop stop-color="#f4e7db" offset=".317"/><stop stop-color="#d3b28f" offset="1"/></radialGradient><radialGradient id="b" cx="51.067" cy="-67.575" r="26.61" gradientTransform="matrix(.19721 .12307 -.06045 .09687 -3.935 5.194)" gradientUnits="userSpaceOnUse"><stop stop-color="#ecded0" stop-opacity="0" offset="0"/><stop stop-color="#ebddcf" stop-opacity="0" offset=".337"/><stop stop-color="#cca987" offset="1"/></radialGradient></defs><g transform="translate(-2.65 -2.695) scale(1.2983)"><path d="M4.752 8.893c.028-.234-.04-.483.208-.68-.39.087-1.238-1.48.414-1.615-2.545-.695.7-3.501 1.57-1.436C8.66 1.43 13.917 3.6 11.726 6.732c.764-.114 1.624 1.143.37 1.702.547.329.504.988-.266 1.066l-4.753.726z" fill="url(#a)"/><path d="M9.789 3.193a2.95 2.95 0 0 0-2.073.852 5.182 4.886 0 0 1 4.198 2.388c1.022-1.817-.45-3.24-2.125-3.24z" fill="url(#b)"/><path d="M8.018 3.59a.605.605 0 0 0-.84.617c.004.07.014.101.044.174l.063.155.127.31.23.562 1.027-.42a.605.605 0 0 0-.368-1.153.605.605 0 0 0-.283-.245zM5.883 3.38a.487.487 0 0 0-.146.277c-.022.169.07.298.22.327.039.01.058.009.107.003l.104-.012.207-.024.377-.043.078-.58.014-.104a.399.399 0 0 0-.004-.12c-.032-.141-.157-.23-.322-.21a.514.514 0 0 0-.414.357.507.507 0 0 0-.22.128z" fill="#cc1e1f"/><path d="M4.752 8.893c.028-.234-.04-.483.208-.68-.39.087-1.238-1.48.414-1.615-2.545-.695.7-3.501 1.57-1.436C8.66 1.43 13.917 3.6 11.726 6.732c.764-.114 1.624 1.143.37 1.702.547.329.504.988-.266 1.066l-4.753.726z" fill="#ffdbb3"/><path d="m6.983 9.536.222 4.767.675-.067.675-.077.675-.071.674-.072.675-.071.675-.074.675-.071.518-4.723c.035-.387-.511-.438-.78.062-.032-.513-.799-.353-.781.063-.024-.42-.783-.4-.78.065-.012-.474-.818-.438-.781.07-.04-.52-.807-.416-.78.063-.023-.471-.808-.361-.781.067-.025-.433-.791-.445-.78.069z" fill="#fff"/><path d="M8.544 9.4c-.022-.471-.807-.361-.78.067l.116 4.769.675-.077zm1.561-.133c-.01-.474-.817-.438-.78.07l-.095 4.751.674-.072zm1.561-.128c-.03-.513-.798-.353-.78.063l-.307 4.742.675-.073z" fill="#d30d0e"/><path d="m7.205 14.303-1.88-1.288-.681-4.375c-.058-.365.272-.18.27.103 0-.289.223-.417.33.126 0-.371.19-.352.322.124-.002-.364.205-.423.32.123.032-.466.265-.333.35.133-.003-.302.285-.516.421.162-.024-.525.315-.337.326.125z" fill="#e6e6e6"/><path d="m6.892 14.088-.303-.208-.353-4.63c-.003-.303.285-.517.421.16zm-.554-.38-.27-.185-.502-4.53c-.002-.365.205-.423.32.123zm-.537-.367-.244-.167-.644-4.431c0-.289.224-.417.33.126" fill="#af090b"/><circle cx="10.56" cy="6.779" r=".596" fill="#430201"/><circle cx="10.686" cy="6.587" r=".159" fill="#fff"/><circle cx="6.829" cy="6.779" r=".596" fill="#430201"/><circle cx="6.955" cy="6.587" r=".159" fill="#fff"/><path d="M8.035 7.248h1.318c.131 0 .237.106.237.237v.289c0 1.045-1.792 1.015-1.792 0v-.29c0-.13.106-.236.237-.236z" fill="#330002"/><path d="M8.694 8.114a.537.537 0 0 0-.488.316c.293.152.686.156.98.005a.537.537 0 0 0-.492-.32z" fill="#8d161a"/></g></svg>

<?xml version="1.0" encoding="UTF-8" standalone="no"?>
<svg
   width="24"
   height="24"
   viewBox="0 0 6.349875 6.349875"
   version="1.1"
   id="svg5251"
   sodipodi:docname="sh.popcorntime.PopcornTime.svg"
   xml:space="preserve"
   inkscape:version="1.2.2 (b0a8486541, 2022-12-01)"
   xmlns:inkscape="http://www.inkscape.org/namespaces/inkscape"
   xmlns:sodipodi="http://sodipodi.sourceforge.net/DTD/sodipodi-0.dtd"
   xmlns="http://www.w3.org/2000/svg"
   xmlns:svg="http://www.w3.org/2000/svg"><sodipodi:namedview
     id="namedview5253"
     pagecolor="#ffffff"
     bordercolor="#000000"
     borderopacity="0.25"
     inkscape:showpageshadow="2"
     inkscape:pageopacity="0.0"
     inkscape:pagecheckerboard="0"
     inkscape:deskcolor="#d1d1d1"
     showgrid="false"
     inkscape:zoom="13.65625"
     inkscape:cx="-2.416476"
     inkscape:cy="12.558352"
     inkscape:window-width="2560"
     inkscape:window-height="1000"
     inkscape:window-x="1680"
     inkscape:window-y="0"
     inkscape:window-maximized="1"
     inkscape:current-layer="svg5251" /><defs
     id="defs5219"><radialGradient
       id="a"
       cx="51.783001"
       cy="-71.550003"
       r="26.610001"
       gradientTransform="matrix(0.301,0.00369,-0.00301,0.24602,-5.545,21.865)"
       gradientUnits="userSpaceOnUse"><stop
         stop-color="#f9eee5"
         offset="0"
         id="stop5205" /><stop
         stop-color="#f4e7db"
         offset=".317"
         id="stop5207" /><stop
         stop-color="#d3b28f"
         offset="1"
         id="stop5209" /></radialGradient><radialGradient
       id="b"
       cx="51.067001"
       cy="-67.574997"
       r="26.610001"
       gradientTransform="matrix(0.19721,0.12307,-0.06045,0.09687,-3.935,5.194)"
       gradientUnits="userSpaceOnUse"><stop
         stop-color="#ecded0"
         stop-opacity="0"
         offset="0"
         id="stop5212" /><stop
         stop-color="#ebddcf"
         stop-opacity="0"
         offset=".337"
         id="stop5214" /><stop
         stop-color="#cca987"
         offset="1"
         id="stop5216" /></radialGradient><radialGradient
       id="paint0_radial_2_194"
       cx="0"
       cy="0"
       r="1"
       gradientUnits="userSpaceOnUse"
       gradientTransform="matrix(0,5.8207157,-5.8207157,0,3.1749375,0.26458845)"><stop
         stop-color="white"
         id="stop38706" /><stop
         offset="1"
         stop-color="#BEBEBE"
         id="stop38708" /></radialGradient><radialGradient
       id="paint1_radial_2_194"
       cx="0"
       cy="0"
       r="1"
       gradientUnits="userSpaceOnUse"
       gradientTransform="matrix(0,2.910358,-2.910358,0,3.1749347,0.26458351)"><stop
         stop-color="#C50110"
         id="stop38711"
         offset="0"
         style="stop-color:#ff5151;stop-opacity:1;" /><stop
         offset="1"
         stop-color="#7B0619"
         id="stop38713"
         style="stop-color:#cb4141;stop-opacity:1;" /></radialGradient><radialGradient
       id="paint2_radial_2_194"
       cx="0"
       cy="0"
       r="1"
       gradientUnits="userSpaceOnUse"
       gradientTransform="matrix(0,23.334927,-21.776684,0,-21.920227,-0.0429884)"><stop
         stop-color="#6DD4FF"
         id="stop38716" /><stop
         offset="1"
         stop-color="#0076D4"
         id="stop38718" /></radialGradient><radialGradient
       fx="0"
       fy="0"
       cx="0"
       cy="0"
       r="1"
       gradientUnits="userSpaceOnUse"
       gradientTransform="matrix(0,16.499991,-16.499991,0,9,0.750029)"
       spreadMethod="pad"
       id="radialGradient41211"><stop
         style="stop-opacity:1;stop-color:#ffffff"
         offset="0"
         id="stop41207" /><stop
         style="stop-opacity:1;stop-color:#bebebe"
         offset="1"
         id="stop41209" /></radialGradient><radialGradient
       fx="0"
       fy="0"
       cx="0"
       cy="0"
       r="1"
       gradientUnits="userSpaceOnUse"
       gradientTransform="matrix(0,8.249996,-8.249996,0,8.999992,0.750015)"
       spreadMethod="pad"
       id="radialGradient41229"><stop
         style="stop-opacity:1;stop-color:#ff5151"
         offset="0"
         id="stop41225" /><stop
         style="stop-opacity:1;stop-color:#cb4141"
         offset="1"
         id="stop41227" /></radialGradient><clipPath
       clipPathUnits="userSpaceOnUse"
       id="clipPath41239"><path
         d="M 0,0 H 49 V 49 H 0 Z"
         id="path41237" /></clipPath><clipPath
       clipPathUnits="userSpaceOnUse"
       id="clipPath41255"><path
         d="M 0,0 H 49 V 49 H 0 Z"
         id="path41253" /></clipPath><clipPath
       clipPathUnits="userSpaceOnUse"
       id="clipPath41275"><path
         d="M 0,0 H 49 V 49 H 0 Z"
         id="path41273" /></clipPath><clipPath
       clipPathUnits="userSpaceOnUse"
       id="clipPath41291"><path
         d="M 0,0 H 49 V 49 H 0 Z"
         id="path41289" /></clipPath><radialGradient
       fx="0"
       fy="0"
       cx="0"
       cy="0"
       r="1"
       gradientUnits="userSpaceOnUse"
       gradientTransform="matrix(0,16.499991,-16.499991,0,9,0.750029)"
       spreadMethod="pad"
       id="radialGradient41211-7"><stop
         style="stop-opacity:1;stop-color:#ffffff"
         offset="0"
         id="stop41207-8" /><stop
         style="stop-opacity:1;stop-color:#bebebe"
         offset="1"
         id="stop41209-4" /></radialGradient><radialGradient
       fx="0"
       fy="0"
       cx="0"
       cy="0"
       r="1"
       gradientUnits="userSpaceOnUse"
       gradientTransform="matrix(0,8.249996,-8.249996,0,8.999992,0.750015)"
       spreadMethod="pad"
       id="radialGradient41229-5"><stop
         style="stop-opacity:1;stop-color:#ff5151"
         offset="0"
         id="stop41225-0" /><stop
         style="stop-opacity:1;stop-color:#cb4141"
         offset="1"
         id="stop41227-3" /></radialGradient><clipPath
       clipPathUnits="userSpaceOnUse"
       id="clipPath41239-6"><path
         d="M 0,0 H 49 V 49 H 0 Z"
         id="path41237-1" /></clipPath><clipPath
       clipPathUnits="userSpaceOnUse"
       id="clipPath41255-0"><path
         d="M 0,0 H 49 V 49 H 0 Z"
         id="path41253-6" /></clipPath><clipPath
       clipPathUnits="userSpaceOnUse"
       id="clipPath41275-3"><path
         d="M 0,0 H 49 V 49 H 0 Z"
         id="path41273-2" /></clipPath><clipPath
       clipPathUnits="userSpaceOnUse"
       id="clipPath41291-0"><path
         d="M 0,0 H 49 V 49 H 0 Z"
         id="path41289-6" /></clipPath><radialGradient
       id="a-0"
       cx="51.783001"
       cy="-71.550003"
       r="26.610001"
       gradientTransform="matrix(0.301,0.00369,-0.00301,0.24602,-5.545,21.865)"
       gradientUnits="userSpaceOnUse"><stop
         stop-color="#f9eee5"
         offset="0"
         id="stop5205-9" /><stop
         stop-color="#f4e7db"
         offset=".317"
         id="stop5207-3" /><stop
         stop-color="#d3b28f"
         offset="1"
         id="stop5209-6" /></radialGradient><radialGradient
       id="b-0"
       cx="51.067001"
       cy="-67.574997"
       r="26.610001"
       gradientTransform="matrix(0.19721,0.12307,-0.06045,0.09687,-3.935,5.194)"
       gradientUnits="userSpaceOnUse"><stop
         stop-color="#ecded0"
         stop-opacity="0"
         offset="0"
         id="stop5212-6" /><stop
         stop-color="#ebddcf"
         stop-opacity="0"
         offset=".337"
         id="stop5214-2" /><stop
         stop-color="#cca987"
         offset="1"
         id="stop5216-6" /></radialGradient></defs><g
     id="g41197"
     transform="matrix(0.35277082,0,0,0.35277082,-1.1961624e-4,-9.2306512e-6)"><g
       id="g41199"><g
         id="g41205"><path
           d="m 7.195,0.836 c 0.09,0 0.176,-0.012 0.258,-0.035 1.078,-0.071 2.156,-0.067 3.231,0.008 0.976,0.078 1.921,0.289 2.836,0.636 1.519,0.625 2.558,1.711 3.121,3.254 0.316,0.93 0.507,1.887 0.566,2.867 0.078,1.235 0.051,2.465 -0.086,3.696 -0.105,0.863 -0.328,1.691 -0.672,2.488 -0.637,1.383 -1.672,2.336 -3.101,2.859 C 12.191,17 11,17.207 9.773,17.227 8.398,17.301 7.035,17.195 5.684,16.918 3.203,16.367 1.668,14.852 1.09,12.375 0.844,11.262 0.73,10.133 0.754,8.992 0.727,7.781 0.855,6.582 1.141,5.402 1.75,3.09 3.219,1.656 5.547,1.102 6.09,0.969 6.641,0.879 7.195,0.836 Z"
           style="fill:url(#radialGradient41211-7);fill-rule:evenodd;stroke:none"
           id="path41213" /></g></g></g><g
     id="g41215"
     transform="matrix(0.35277082,0,0,0.35277082,-1.1961624e-4,-9.2306512e-6)"><g
       id="g41217"><g
         id="g41223"><path
           d="m 7.195,0.836 c 0.09,0 0.176,-0.012 0.258,-0.035 1.078,-0.071 2.156,-0.067 3.231,0.008 0.976,0.078 1.921,0.289 2.836,0.636 1.519,0.625 2.558,1.711 3.121,3.254 0.316,0.93 0.507,1.887 0.566,2.867 0.078,1.235 0.051,2.465 -0.086,3.696 -0.105,0.863 -0.328,1.691 -0.672,2.488 -0.637,1.383 -1.672,2.336 -3.101,2.859 C 12.191,17 11,17.207 9.773,17.227 8.398,17.301 7.035,17.195 5.684,16.918 3.203,16.367 1.668,14.852 1.09,12.375 0.844,11.262 0.73,10.133 0.754,8.992 0.727,7.781 0.855,6.582 1.141,5.402 1.75,3.09 3.219,1.656 5.547,1.102 6.09,0.969 6.641,0.879 7.195,0.836 Z"
           style="fill:url(#radialGradient41229-5);fill-rule:evenodd;stroke:none"
           id="path41231" /></g></g></g><g
     id="g5571"
     transform="matrix(0.26786506,0,0,0.26786506,-2.7049422,1.6750959)"><g
       transform="matrix(1.2983,0,0,1.2983,10.834403,-5.562373)"
       id="g5249"><path
         d="M 4.752,8.893 C 4.78,8.659 4.712,8.41 4.96,8.213 4.57,8.3 3.722,6.733 5.374,6.598 2.829,5.903 6.074,3.097 6.944,5.162 8.66,1.43 13.917,3.6 11.726,6.732 12.49,6.618 13.35,7.875 12.096,8.434 12.643,8.763 12.6,9.422 11.83,9.5 l -4.753,0.726 z"
         fill="url(#a)"
         id="path5221"
         style="fill:url(#a-0)" /><path
         d="M 9.789,3.193 A 2.95,2.95 0 0 0 7.716,4.045 5.182,4.886 0 0 1 11.914,6.433 C 12.936,4.616 11.464,3.193 9.789,3.193 Z"
         fill="url(#b)"
         id="path5223"
         style="fill:url(#b-0)" /><path
         d="m 8.018,3.59 a 0.605,0.605 0 0 0 -0.84,0.617 c 0.004,0.07 0.014,0.101 0.044,0.174 l 0.063,0.155 0.127,0.31 0.23,0.562 1.027,-0.42 A 0.60515143,0.60515143 0 0 0 8.301,3.835 0.605,0.605 0 0 0 8.018,3.59 Z M 5.883,3.38 A 0.487,0.487 0 0 0 5.737,3.657 c -0.022,0.169 0.07,0.298 0.22,0.327 0.039,0.01 0.058,0.009 0.107,0.003 L 6.168,3.975 6.375,3.951 6.752,3.908 6.83,3.328 6.844,3.224 A 0.399,0.399 0 0 0 6.84,3.104 C 6.808,2.963 6.683,2.874 6.518,2.894 A 0.514,0.514 0 0 0 6.104,3.251 0.507,0.507 0 0 0 5.884,3.379 Z"
         fill="#cc1e1f"
         id="path5225" /><path
         d="M 4.752,8.893 C 4.78,8.659 4.712,8.41 4.96,8.213 4.57,8.3 3.722,6.733 5.374,6.598 2.829,5.903 6.074,3.097 6.944,5.162 8.66,1.43 13.917,3.6 11.726,6.732 12.49,6.618 13.35,7.875 12.096,8.434 12.643,8.763 12.6,9.422 11.83,9.5 l -4.753,0.726 z"
         fill="#ffdbb3"
         id="path5227" /><path
         d="M 6.983,9.536 7.205,14.303 7.88,14.236 8.555,14.159 9.23,14.088 9.904,14.016 10.579,13.945 11.254,13.871 11.929,13.8 12.447,9.077 C 12.482,8.69 11.936,8.639 11.667,9.139 11.635,8.626 10.868,8.786 10.886,9.202 10.862,8.782 10.103,8.802 10.106,9.267 10.094,8.793 9.288,8.829 9.325,9.337 9.285,8.817 8.518,8.921 8.545,9.4 8.522,8.929 7.737,9.039 7.764,9.467 7.739,9.034 6.973,9.022 6.984,9.536 Z"
         fill="#ffffff"
         id="path5229" /><path
         d="M 8.544,9.4 C 8.522,8.929 7.737,9.039 7.764,9.467 L 7.88,14.236 8.555,14.159 Z M 10.105,9.267 C 10.095,8.793 9.288,8.829 9.325,9.337 L 9.23,14.088 9.904,14.016 Z m 1.561,-0.128 c -0.03,-0.513 -0.798,-0.353 -0.78,0.063 l -0.307,4.742 0.675,-0.073 z"
         fill="#d30d0e"
         id="path5231" /><path
         d="M 7.205,14.303 5.325,13.015 4.644,8.64 c -0.058,-0.365 0.272,-0.18 0.27,0.103 0,-0.289 0.223,-0.417 0.33,0.126 0,-0.371 0.19,-0.352 0.322,0.124 C 5.564,8.629 5.771,8.57 5.886,9.116 5.918,8.65 6.151,8.783 6.236,9.249 6.233,8.947 6.521,8.733 6.657,9.411 6.633,8.886 6.972,9.074 6.983,9.536 Z"
         fill="#e6e6e6"
         id="path5233" /><path
         d="M 6.892,14.088 6.589,13.88 6.236,9.25 C 6.233,8.947 6.521,8.733 6.657,9.41 Z M 6.338,13.708 6.068,13.523 5.566,8.993 C 5.564,8.628 5.771,8.57 5.886,9.116 Z M 5.801,13.341 5.557,13.174 4.913,8.743 c 0,-0.289 0.224,-0.417 0.33,0.126"
         fill="#af090b"
         id="path5235" /><circle
         cx="10.56"
         cy="6.7789998"
         r="0.59600002"
         fill="#430201"
         id="circle5237" /><circle
         cx="10.686"
         cy="6.5869999"
         r="0.15899999"
         fill="#ffffff"
         id="circle5239" /><circle
         cx="6.829"
         cy="6.7789998"
         r="0.59600002"
         fill="#430201"
         id="circle5241" /><circle
         cx="6.9549999"
         cy="6.5869999"
         r="0.15899999"
         fill="#ffffff"
         id="circle5243" /><path
         d="m 8.035,7.248 h 1.318 c 0.131,0 0.237,0.106 0.237,0.237 v 0.289 c 0,1.045 -1.792,1.015 -1.792,0 v -0.29 c 0,-0.13 0.106,-0.236 0.237,-0.236 z"
         fill="#330002"
         id="path5245" /><path
         d="M 8.694,8.114 A 0.537,0.537 0 0 0 8.206,8.43 c 0.293,0.152 0.686,0.156 0.98,0.005 A 0.537,0.537 0 0 0 8.694,8.115 Z"
         fill="#8d161a"
         id="path5247" /></g></g></svg>
